X:1
T:The Well-Tempered Clavier Part II Fuga XIX
T:BWV 888
T:J. S. Bach
%%score { ( 1 3 ) | 2 }
L:1/8
M:4/4
K:A
V:1 treble nm="Harp"
V:3 treble 
V:2 bass 
V:1
 z8 | z4 z E/F/ G/F/E/G/ | F/A/G- G/B/A- A/c/B/A/ B/F/G/A/ | %3
 G/B/A/G/ A/E/F/=G/ F/A/^G/F/ G/^D/E/F/ | z A/B/ c/B/A/c/ B/d/c- c/e/d- | %5
 d/f/e/d/ e/B/c/d/ c/d/e/f/ e/a/g/f/ | g/f/e/^d/ e2- e>d e>d | e>c d2- d>^B c2- | %8
 c>^A B2- B/^E/F/G/ =A/G/F/A/ | G/B/A- A/c/B- B/d/c/B/ c/G/A/B/ | A4- A/c/B/A/ B/F/G/A/ | %11
 G4- G>G c>^d | ^B z ^d2- d/B/c/d/ c/f/e/d/ | e4- e/=g/f/e/ f/c/d/e/ | d4- d/f/e/d/ e/B/c/d/ | %15
 c/d/c/B/ A/G/F/E/ D/F/G/B/ E/G/^A/c/ | B2- B>B A2- A>A | G2- G>=G F2 z2 | F2 z2 z4 | %19
 z/ c/d/e/ f/e/d/f/ e/=g/f- f/a/g- | g/b/a/=g/ a/e/f/g/ f4- | f/f/e/^d/ e/B/c/=d/ c4- | %22
 c/=c/B/^A/ B/F/G/=A/ G>A B>^c | d>^d e>=f ^f4- | f/^d/e/f/ e/a/g/f/ g/f/e/d/ e/B/c/=d/ | %25
 d/A/A/B/ A/d/c/B/ c/B/A/G/ A/E/F/=G/ | F/A/B/c/ d2- d/G/A/B/ c/B/A/c/ | %27
 B/d/c- c/e/d- d/f/e/d/ e/B/c/d/ | c>B A/4G/4A/4G/4A/4G/4A/ !fermata!A4 |] %29
V:2
 z A,/B,/ C/B,/A,/C/ B,/D/C- C/E/D- | D/F/E/D/ E/B,/C/D/ CA,B,C | DB,/E/ CF/C/ ^D/B,/ E2 D | %3
 E>B, CA, D>A, B,G, | C/D/C/B,/ A,>A, E>E, F,>F | G2 z E A,B,C^D | %6
 EE,/F,/ G,/F,/E,/G,/ F,/A,/G,- G,/B,/A,- | A,/=C/B,/A,/ B,/F,/G,/A,/ G,/B,/A,/G,/ A,/E,/F,/=G,/ | %8
 F,/A,/G,/F,/ G,/^D,/^E,/F,/ E,/C,/D,/E,/ F,>F, | C>C, D,>^D, E,>G, ^E,C, | %10
 F,>G, A,F, B,,>C, ^D,B,, | E,>^D, C,>C ^B,/G,/C/=B,/ A,/G,/A,/F,/ | G,>^D, ^B,,G,, C,4- | %13
 C, z z2 z z/ C/ ^A,F, | B,>F, D,B,, E,>B,, G,,E,, | %15
 A,,,/E,,/A,,/B,,/ C,/B,,/A,,/C,/ B,,/D,/C,- C,/E,/D,- | %16
 D,/F,/E,/^D,/ E,/B,,/C,/=D,/ C,/E,/D,/C,/ D,/A,,/B,,/C,/ | %17
 B,,/D,/C,/B,,/ C,/G,,/^A,,/B,,/ A,,/F,,/G,,/A,,/ G,,/C,/B,,/A,,/ | %18
 B,,/C,/D,/E,/ D,/=G,/F,/E,/ F,/^G,/A,/B,/ A,/D/C/B,/ | C/A,/B,/C/ D>D, A,>^A, B,>B,, | %20
 =C,>=C ^C>A, D/C/B,/A,/ B,/F,/G,/A,/ | G,/A,/G,/F,/ G,/B,/A,/G,/ A,/G,/F,/E,/ F,/C,/^D,/E,/ | %22
 ^D,/E,/D,/C,/ D,/F,/E,/D,/ E,>E,, E,>^A,, | B,,>B, C>C, D,>D ^D>^D, | %24
 E, z/ z z2 F,/G,/A,/ G,/B,/A,/G,/ | A,2 z2 z/ B,,/C,/D,/ C,/E,/D,/C,/ | %26
 D,/C,/B,,/A,,/ B,,/F,,/G,,/A,,/ G,,/E,,/F,,/G,,/ A,,/B,,/C,/A,,/ | %27
 E,>E,, F,,>F, G,/A,/G,/F,/ E,/D,/C,/B,,/ | A,,D, E,2 !fermata!A,,4 |] %29
V:3
 x8 | x8 | x8 | x8 | E3 F G>G A>A | B2 z G A[I:staff +1]GA[I:staff -1]B | %6
 B2- B/A/G/B/ A/F/B- B/G/c- | cF- F>F E2- E>E | ^D2- D>=D C3 ^D | ^E>E F>F G2 z2 | %10
 z/ G/F/^E/ F/C/^D/=E/ D4- | D/G,/C/^D/ E/D/C/E/ D/F/E- E/G/F- | %12
 F/A/G/F/ G/^D/E/F/ E>[I:staff +1]G, ^A,^B, | C/^D/C/^B,/ C/G,/^A,/=B,/ A,[I:staff -1] z z2 | %14
 z/ c/B/^A/ B/F/G/=A/ G4 | A z z2 z4 | z z/ F/ =G2- G>^E F2- | F>^D E2- E=D/C/ B,/^A,/G,/F,/ | %18
 D/C/B,/^A,/ B,/E/D/C/ D/d/c/B/ c/G/A/B/ | A3 B c>c d>^d | e4- e/e/d/c/ d/A/B/c/ | %21
 B4- B/B/A/G/ A/E/F/=G/ | F4- F/B,/E/F/ G/F/E/=G/ | F/A/G- G/B/A- A/c/B/A/ B/F/G/A/ | %24
 G/A/[I:staff +1]G/F/ G/^D/E/F/ E[I:staff -1] z z2 | %25
 z/[I:staff +1] D/C/B,/ C/G,/A,/B,/ A,[I:staff -1] z z2 | z2 z/ A/G/F/ E2- E>F | G>G A>A B2 z2 | %28
 z/ A/G/F/ E/D/C/B,/ C4 |] %29

